src/icons/svgs/24/chevron-left.svg

<svg width="24" height="24" viewBox="0 0 24 24" fill="none" xmlns="http://www.w3.org/2000/svg">
<path d="M14.3994 20.6908L7.29489 12.7117C7.08614 12.4445 7 12.194 7 11.981C7 11.7681 7.0861 11.4812 7.2595 11.2883L14.364 3.30929C14.7191 2.90871 15.3084 2.89569 15.6793 3.27927C16.0528 3.66027 16.0649 4.2968 15.7072 4.69513L9.22097 11.981L15.7396 19.3046C16.0973 19.7012 16.0851 20.3392 15.7117 20.7204C15.3422 21.1041 14.7525 21.0916 14.3994 20.6908Z" fill="black"/>
</svg>

<svg width="24" height="24" viewBox="0 0 24 24" xmlns="http://www.w3.org/2000/svg">
    <path d="m14.4 20.69-7.105-7.978C7.086 12.444 7 12.194 7 11.98c0-.213.086-.5.26-.693l7.104-7.979a.883.883 0 0 1 1.315-.03 1.05 1.05 0 0 1 .028 1.416L9.221 11.98l6.519 7.324a1.051 1.051 0 0 1-.028 1.415.88.88 0 0 1-1.313-.03z"/>
</svg>
